svgs/thin/computer-mouse.svg

<svg xmlns="http://www.w3.org/2000/svg" viewBox="0 0 384 512"><!-- Font Awesome Pro 6.0.0-alpha2 by @fontawesome - https://fontawesome.com License - https://fontawesome.com/license (Commercial License) --><path d="M224 0H160C71.625 0 0 71.625 0 160V352C0 440.375 71.625 512 160 512H224C312.375 512 384 440.375 384 352V160C384 71.625 312.375 0 224 0ZM16 160C16 80.598 80.598 16 160 16H184V192H16V160ZM368 352C368 431.402 303.402 496 224 496H160C80.598 496 16 431.402 16 352V208H368V352ZM368 192H200V16H224C303.402 16 368 80.598 368 160V192Z"/></svg>

<svg xmlns="http://www.w3.org/2000/svg" viewBox="0 0 384 512"><!--! Font Awesome Pro 6.3.0 by @fontawesome - https://fontawesome.com License - https://fontawesome.com/license (Commercial License) Copyright 2023 Fonticons, Inc. --><path d="M224 0H160C71.63 0 0 71.63 0 160v192c0 88.38 71.63 160 160 160h64c88.38 0 160-71.63 160-160V160C384 71.63 312.4 0 224 0zM16 160c0-79.4 64.6-144 144-144h24V192H16V160zM368 352c0 79.4-64.6 144-144 144H160c-79.4 0-144-64.6-144-144V208h352V352zM368 192h-168V16H224c79.4 0 144 64.6 144 144V192z"/></svg>
